X:47
T: STOLZ HEINRICH DER WOLLT FREIEN GEHN
N: E0040
O: Europa, Mitteleuropa, Deutschland, Niederrhein; Siebengebirge
R: erzaehlendes Volks - Lied, Ritter - Sage
M: 2/4
L: 1/16
K: A
E2 | A2=c2B2A2 | A2G2G2
E2 | A2B2=c2c2 | B4z2
A2 | =c2B2c2A2 | =c4e4 |
A3Bc2A2 | G2F2E2
B2 | =c2B2c2A2 | =c4e2
c2 | B2A2G2B2 | A4z2

@@@ Tune index: 3697
